X:1
T:On Top of Old Smoky
M:3/4
L:1/4
K:G
 G| G B d| g3| e2 c| c d e| d3-| d z G| G B d| d3| A2A/2-B/2| c B A|\
 G3-| G z||
